svgs/sharp-regular/hand-holding-box.svg

<svg xmlns="http://www.w3.org/2000/svg" viewBox="0 0 576 512"><!--! Font Awesome Pro 6.6.0 by @fontawesome - https://fontawesome.com License - https://fontawesome.com/license (Commercial License) Copyright 2024 Fonticons, Inc. --><path d="M224 48l0 80 64-32 64 32 0-80 80 0 0 160-288 0 0-160 80 0zM144 0L96 0l0 48 0 160 0 48 48 0 288 0 48 0 0-48 0-160 0-48L432 0 144 0zm24 304l-7.3 0-6 4-90 60L24 368 0 368l0 48 24 0 48 0 7.3 0 6-4 90-60L360 352l0 32-40 0-24 0-40 0-24 0 0 48 24 0 40 0 24 0 48 0 32 0 7 0 5.9-3.7 80.4-51 15 24L416.6 464 24 464 0 464l0 48 24 0 400 0 7.4 0 6.1-4.2 116.8-80 19-13-12.2-19.5-40-64-12.8-20.5-20.4 13L408 374.5l0-46.5 0-24-24 0-216 0z"/></svg>

<svg xmlns="http://www.w3.org/2000/svg" viewBox="0 0 576 512"><!--! Font Awesome Pro 6.4.2 by @fontawesome - https://fontawesome.com License - https://fontawesome.com/license (Commercial License) Copyright 2023 Fonticons, Inc. --><path d="M224 48v80l64-32 64 32V48h80V208H144V48h80zM144 0H96V48 208v48h48H432h48V208 48 0H432 144zm24 304h-7.3l-6 4-90 60H24 0v48H24 72h7.3l6-4 90-60H360v32H320 296 256 232v48h24 40 24 48 32 7l5.9-3.7 80.4-51 15 24L416.6 464H24 0v48H24 424h7.4l6.1-4.2 116.8-80 19-13-12.2-19.5-40-64-12.8-20.5-20.4 13L408 374.5V328 304H384 168z"/></svg>
